svg/color/pxp.svg

<svg viewBox="0 0 40 40" fill="none" xmlns="http://www.w3.org/2000/svg">
<g clip-path="url(#clip0_1494_170029)">
<path d="M32.869 4.51611H7.07227V35.4317H32.869V4.51611Z" fill="white"/>
<path fill-rule="evenodd" clip-rule="evenodd" d="M19.9265 0C3.51645 0 0 3.52941 0 20C0 36.4706 3.51645 40 19.9265 40C36.3366 40 39.8531 36.4706 39.8531 20C39.8531 3.52941 36.3366 0 19.9265 0ZM22.1829 9.8C23.4086 9.93022 24.593 10.3191 25.6583 10.9412C27.3316 11.9735 28.4891 13.7235 28.4891 16.2676C28.4891 18.8118 27.3375 20.6118 25.7082 21.7294C24.6489 22.4302 23.4479 22.8863 22.1917 23.0647V25.3324H19.0709V23.1824H16.8907V28.4559H18.4262V31.5824H12.246V28.4559H13.7845V12.8324H12.246V9.70588H19.0797V7.74411H22.1917L22.1829 9.8ZM20.6269 20.0588H16.8907V12.8324H20.6269C21.9075 12.8324 23.1558 13.0676 24.0291 13.6059C24.7968 14.0794 25.3741 14.8294 25.3741 16.2676C25.3741 17.7059 24.788 18.5853 23.9529 19.1471C22.9556 19.7678 21.8001 20.0845 20.6269 20.0588Z" fill="url(#paint0_linear_1494_170029)"/>
</g>
<defs>
<linearGradient id="paint0_linear_1494_170029" x1="19.9265" y1="0" x2="19.9265" y2="40" gradientUnits="userSpaceOnUse">
<stop stop-color="#5CC6F6"/>
<stop offset="1" stop-color="#007AFF"/>
</linearGradient>
<clipPath id="clip0_1494_170029">
<rect width="40" height="40" fill="white"/>
</clipPath>
</defs>
</svg>

<svg xmlns="http://www.w3.org/2000/svg" fill="none" viewBox="0 0 40 40"><g clip-path="url(#pxp_svg-a)"><path fill="#fff" d="M32.869 4.516H7.072v30.916H32.87z"/><path fill="url(#pxp_svg-b)" fill-rule="evenodd" d="M19.927 0C3.517 0 0 3.53 0 20s3.516 20 19.927 20c16.41 0 19.926-3.53 19.926-20S36.337 0 19.927 0m2.256 9.8c1.226.13 2.41.52 3.475 1.141 1.674 1.032 2.831 2.782 2.831 5.327s-1.152 4.344-2.78 5.461a8.55 8.55 0 0 1-3.517 1.336v2.267H19.07v-2.15h-2.18v5.274h1.535v3.126h-6.18v-3.126h1.538V12.832h-1.538V9.706h6.834V7.744h3.112zm-1.556 10.259H16.89v-7.227h3.736c1.28 0 2.529.236 3.402.774.768.473 1.345 1.223 1.345 2.662s-.586 2.317-1.421 2.88a6.04 6.04 0 0 1-3.326.91" clip-rule="evenodd"/></g><defs><linearGradient id="pxp_svg-b" x1="19.927" x2="19.927" y1="0" y2="40" gradientUnits="userSpaceOnUse"><stop stop-color="#5CC6F6"/><stop offset="1" stop-color="#007AFF"/></linearGradient><clipPath id="pxp_svg-a"><path fill="#fff" d="M0 0h40v40H0z"/></clipPath></defs></svg>
